X: 17
T: Monaghan, The
Z: Aberfoyle Whistler
S: https://thesession.org/tunes/67#setting52102
R: jig
M: 6/8
L: 1/8
K: Edor
|:BGE F2E|BGE FGA|BGE F2E|AFD FGA|
BGE F2E|BGE FGA|dcB GAG|F3 AFD:|
|:EGB efg|fed ecA|DFA dAG|F3 AFD|
EGB efg|fed edc|dcB ABG|F3 AFD:|
|:~g3 eBe|~g3 bge|~g3 eBe|~f3 afd|
~g3 eBe|~g3 bge|dcB ABG|F3 AFD:|
|:EGB eBG|BGE F3|EGB eBG|F3 AFD|
EGB GBd|Beg egb|f2 d ABG|F3 AFD:|

